localPackages/DesignSystem/Sources/DesignSystem/Resources/Assets.xcassets/IconSet/ic-trash-cross.imageset/ic-trash-cross.svg

<svg width="24" height="24" viewBox="0 0 24 24" fill="none" xmlns="http://www.w3.org/2000/svg">
<g id="ic-trash-cross">
<path id="Icon" fill-rule="evenodd" clip-rule="evenodd" d="M9.07918 1.91459C9.20622 1.6605 9.46592 1.5 9.75 1.5H14.25C14.5341 1.5 14.7938 1.6605 14.9208 1.91459L16.2135 4.5H21C21.4142 4.5 21.75 4.83579 21.75 5.25C21.75 5.66421 21.4142 6 21 6H19.4667L18.8143 20.3522C18.7597 21.5538 17.7695 22.5 16.5666 22.5H7.43337C6.23045 22.5 5.24031 21.5538 5.18569 20.3522L4.53332 6H3C2.58579 6 2.25 5.66421 2.25 5.25C2.25 4.83579 2.58579 4.5 3 4.5H7.78647L9.07918 1.91459ZM13.7865 3L14.5365 4.5H9.46353L10.2135 3H13.7865ZM17.9651 6H6.03487L6.68414 20.2841C6.70235 20.6846 7.0324 21 7.43337 21H16.5666C16.9676 21 17.2977 20.6846 17.3159 20.2841L17.9651 6ZM9.53033 9.96967C9.23744 9.67678 8.76256 9.67678 8.46967 9.96967C8.17678 10.2626 8.17678 10.7374 8.46967 11.0303L10.9393 13.5L8.46967 15.9697C8.17678 16.2626 8.17678 16.7374 8.46967 17.0303C8.76256 17.3232 9.23744 17.3232 9.53033 17.0303L12 14.5607L14.4697 17.0303C14.7626 17.3232 15.2374 17.3232 15.5303 17.0303C15.8232 16.7374 15.8232 16.2626 15.5303 15.9697L13.0607 13.5L15.5303 11.0303C15.8232 10.7374 15.8232 10.2626 15.5303 9.96967C15.2374 9.67678 14.7626 9.67678 14.4697 9.96967L12 12.4393L9.53033 9.96967Z" fill="#0F0F0F"/>
</g>
</svg>

<svg xmlns="http://www.w3.org/2000/svg" width="24" height="24" viewBox="0 0 24 24">
  <g class="ic-trash-cross">
    <path fill-rule="evenodd" d="M9.08 1.915a.75.75 0 0 1 .67-.415h4.5a.75.75 0 0 1 .67.415L16.214 4.5H21A.75.75 0 0 1 21 6h-1.533l-.653 14.352a2.25 2.25 0 0 1-2.247 2.148H7.433a2.25 2.25 0 0 1-2.247-2.148L4.533 6H3a.75.75 0 0 1 0-1.5h4.786L9.08 1.915ZM13.786 3l.75 1.5H9.463l.75-1.5h3.572Zm4.178 3H6.035l.65 14.284a.75.75 0 0 0 .748.716h9.134a.75.75 0 0 0 .749-.716L17.966 6ZM9.53 9.97a.75.75 0 0 0-1.06 1.06l2.47 2.47-2.47 2.47a.75.75 0 1 0 1.06 1.06L12 14.56l2.47 2.47a.75.75 0 1 0 1.06-1.06l-2.47-2.47 2.47-2.47a.75.75 0 1 0-1.06-1.06L12 12.44 9.53 9.97Z" class="Icon"/>
  </g>
</svg>
